X: 14633
T: Gan Ainm
R: waltz
M: 3/4
K: Gmajor
|d ^cd|ed Bd GB|D2G2B2|E4_E2|D4G2|F4A2|d4c2|
B2 BA Bc|B3 d ^cd|ed Bd GB|D2G2B2|E4_E2|D4G2|
F4A2|d4F2|G2 FG Bd|G3d ^cd|G2B2c2|d6|g6|g2f3e|
B4c2|d3ed2|c2B2A2|G2GF GA|B2BA Bc|d6|g6|g2f3e|
B4c2|d3ed2|(3ded (3BdB (3ABA|1 (3GdG FG Bd:|2 g2B2c2:|3 G4DD||
DE FG A^A (B6|B6)|(G6|G6)|B,2D2G2|B2d2 ^c|(e6|e6)|
c6|A4G2|(F6|F4) E2|D6|d4 c2|B4DD|DE FG A^A|
(B6|B6)|(G6|G6)|B,2D2G2|B2d3^d|(e6|e6)|66|
f4 e2|d4 B2|G2F2E2|D6|A6|G6||

